public/logo.svg

<svg width="81" height="41" viewBox="0 0 81 41" fill="none" xmlns="http://www.w3.org/2000/svg">
<path d="M3.82213 23L3.82213 6.36004L5.64213 8.18004L0.182129 8.18004L0.182129 4.80004L8.03413 4.80004L8.03413 23L3.82213 23Z" fill="url(#paint0_linear_345_95)"/>
<path d="M18.9958 23.312C17.5051 23.312 16.1704 22.948 14.9918 22.22C13.8131 21.4747 12.8858 20.4 12.2098 18.996C11.5338 17.592 11.1958 15.8934 11.1958 13.9C11.1958 11.9067 11.5338 10.208 12.2098 8.80404C12.8858 7.40004 13.8131 6.33404 14.9918 5.60604C16.1704 4.8607 17.5051 4.48804 18.9958 4.48804C20.5038 4.48804 21.8384 4.8607 22.9998 5.60604C24.1784 6.33404 25.1058 7.40004 25.7818 8.80404C26.4578 10.208 26.7958 11.9067 26.7958 13.9C26.7958 15.8934 26.4578 17.592 25.7818 18.996C25.1058 20.4 24.1784 21.4747 22.9998 22.22C21.8384 22.948 20.5038 23.312 18.9958 23.312ZM18.9958 19.75C19.7064 19.75 20.3218 19.5507 20.8418 19.152C21.3791 18.7534 21.7951 18.1207 22.0898 17.254C22.4018 16.3874 22.5578 15.2694 22.5578 13.9C22.5578 12.5307 22.4018 11.4127 22.0898 10.546C21.7951 9.67937 21.3791 9.0467 20.8418 8.64804C20.3218 8.24937 19.7064 8.05004 18.9958 8.05004C18.3024 8.05004 17.6871 8.24937 17.1498 8.64804C16.6298 9.0467 16.2138 9.67937 15.9018 10.546C15.6071 11.4127 15.4598 12.5307 15.4598 13.9C15.4598 15.2694 15.6071 16.3874 15.9018 17.254C16.2138 18.1207 16.6298 18.7534 17.1498 19.152C17.6871 19.5507 18.3024 19.75 18.9958 19.75Z" fill="url(#paint1_linear_345_95)"/>
<path d="M36.6423 23.312C35.1516 23.312 33.8169 22.948 32.6383 22.22C31.4596 21.4747 30.5323 20.4 29.8563 18.996C29.1803 17.592 28.8423 15.8934 28.8423 13.9C28.8423 11.9067 29.1803 10.208 29.8563 8.80404C30.5323 7.40004 31.4596 6.33404 32.6383 5.60604C33.8169 4.8607 35.1516 4.48804 36.6423 4.48804C38.1503 4.48804 39.4849 4.8607 40.6463 5.60604C41.8249 6.33404 42.7523 7.40004 43.4283 8.80404C44.1043 10.208 44.4423 11.9067 44.4423 13.9C44.4423 15.8934 44.1043 17.592 43.4283 18.996C42.7523 20.4 41.8249 21.4747 40.6463 22.22C39.4849 22.948 38.1503 23.312 36.6423 23.312ZM36.6423 19.75C37.3529 19.75 37.9683 19.5507 38.4883 19.152C39.0256 18.7534 39.4416 18.1207 39.7363 17.254C40.0483 16.3874 40.2043 15.2694 40.2043 13.9C40.2043 12.5307 40.0483 11.4127 39.7363 10.546C39.4416 9.67937 39.0256 9.0467 38.4883 8.64804C37.9683 8.24937 37.3529 8.05004 36.6423 8.05004C35.9489 8.05004 35.3336 8.24937 34.7963 8.64804C34.2763 9.0467 33.8603 9.67937 33.5483 10.546C33.2536 11.4127 33.1063 12.5307 33.1063 13.9C33.1063 15.2694 33.2536 16.3874 33.5483 17.254C33.8603 18.1207 34.2763 18.7534 34.7963 19.152C35.3336 19.5507 35.9489 19.75 36.6423 19.75Z" fill="url(#paint2_linear_345_95)"/>
<path d="M1.61613 37L1.61613 28.6L5.32813 28.6C6.27746 28.6 7.02413 28.7814 7.56813 29.144C8.1228 29.5067 8.40013 30.04 8.40013 30.744C8.40013 31.4267 8.1388 31.9547 7.61613 32.328C7.09346 32.6907 6.40546 32.872 5.55213 32.872L5.77613 32.536C6.7788 32.536 7.5148 32.7227 7.98413 33.096C8.45346 33.4694 8.68813 34.008 8.68813 34.712C8.68813 35.4374 8.42146 36.0027 7.88813 36.408C7.36546 36.8027 6.54946 37 5.44013 37L1.61613 37ZM2.72013 36.104L5.39213 36.104C6.1068 36.104 6.64546 35.992 7.00813 35.768C7.38146 35.5334 7.56813 35.16 7.56813 34.648C7.56813 34.136 7.4028 33.7627 7.07213 33.528C6.74146 33.2934 6.2188 33.176 5.50413 33.176L2.72013 33.176L2.72013 36.104ZM2.72013 32.328L5.24813 32.328C5.8988 32.328 6.3948 32.2054 6.73613 31.96C7.08813 31.7147 7.26413 31.3574 7.26413 30.888C7.26413 30.4187 7.08813 30.0667 6.73613 29.832C6.3948 29.5974 5.8988 29.48 5.24813 29.48L2.72013 29.48L2.72013 32.328Z" fill="url(#paint3_linear_345_95)"/>
<path d="M14.8065 37.08C13.9958 37.08 13.2652 36.8987 12.6145 36.536C11.9745 36.1627 11.4678 35.656 11.0945 35.016C10.7212 34.3654 10.5345 33.624 10.5345 32.792C10.5345 31.9494 10.7212 31.208 11.0945 30.568C11.4678 29.928 11.9745 29.4267 12.6145 29.064C13.2545 28.7014 13.9852 28.52 14.8065 28.52C15.6385 28.52 16.3745 28.7014 17.0145 29.064C17.6652 29.4267 18.1718 29.928 18.5345 30.568C18.9078 31.208 19.0945 31.9494 19.0945 32.792C19.0945 33.624 18.9078 34.3654 18.5345 35.016C18.1718 35.656 17.6652 36.1627 17.0145 36.536C16.3638 36.8987 15.6278 37.08 14.8065 37.08ZM14.8065 36.072C15.4145 36.072 15.9532 35.9387 16.4225 35.672C16.8918 35.3947 17.2598 35.0107 17.5265 34.52C17.8038 34.0187 17.9425 33.4427 17.9425 32.792C17.9425 32.1307 17.8038 31.5547 17.5265 31.064C17.2598 30.5734 16.8918 30.1947 16.4225 29.928C15.9532 29.6507 15.4198 29.512 14.8225 29.512C14.2252 29.512 13.6918 29.6507 13.2225 29.928C12.7532 30.1947 12.3798 30.5734 12.1025 31.064C11.8252 31.5547 11.6865 32.1307 11.6865 32.792C11.6865 33.4427 11.8252 34.0187 12.1025 34.52C12.3798 35.0107 12.7532 35.3947 13.2225 35.672C13.6918 35.9387 14.2198 36.072 14.8065 36.072Z" fill="url(#paint4_linear_345_95)"/>
<path d="M21.5224 37L21.5224 28.6L29.0744 28.6L29.0744 37L27.9384 37L27.9384 29.288L28.2264 29.592L22.3704 29.592L22.6584 29.288L22.6584 37H21.5224Z" fill="url(#paint5_linear_345_95)"/>
<path d="M36.6396 37.08C35.9143 37.08 35.2583 36.9147 34.6716 36.584C34.085 36.2427 33.6156 35.7574 33.2636 35.128C32.9223 34.488 32.7516 33.7094 32.7516 32.792C32.7516 31.8747 32.9223 31.1014 33.2636 30.472C33.605 29.832 34.069 29.3467 34.6556 29.016C35.2423 28.6854 35.9036 28.52 36.6396 28.52C37.4396 28.52 38.1543 28.7014 38.7836 29.064C39.4236 29.416 39.925 29.9174 40.2876 30.568C40.6503 31.208 40.8316 31.9494 40.8316 32.792C40.8316 33.6454 40.6503 34.392 40.2876 35.032C39.925 35.672 39.4236 36.1734 38.7836 36.536C38.1543 36.8987 37.4396 37.08 36.6396 37.08ZM32.3036 40.104L32.3036 28.6L33.3916 28.6L33.3916 31.128L33.2796 32.808L33.4396 34.504L33.4396 40.104H32.3036ZM36.5596 36.072C37.157 36.072 37.6903 35.9387 38.1596 35.672C38.629 35.3947 39.0023 35.0107 39.2796 34.52C39.557 34.0187 39.6956 33.4427 39.6956 32.792C39.6956 32.1414 39.557 31.5707 39.2796 31.08C39.0023 30.5894 38.629 30.2054 38.1596 29.928C37.6903 29.6507 37.157 29.512 36.5596 29.512C35.9623 29.512 35.4236 29.6507 34.9436 29.928C34.4743 30.2054 34.101 30.5894 33.8236 31.08C33.557 31.5707 33.4236 32.1414 33.4236 32.792C33.4236 33.4427 33.557 34.0187 33.8236 34.52C34.101 35.0107 34.4743 35.3947 34.9436 35.672C35.4236 35.9387 35.9623 36.072 36.5596 36.072Z" fill="url(#paint6_linear_345_95)"/>
<path d="M46.7284 37.08C45.9177 37.08 45.187 36.8987 44.5364 36.536C43.8964 36.1627 43.3897 35.656 43.0164 35.016C42.643 34.3654 42.4564 33.624 42.4564 32.792C42.4564 31.9494 42.643 31.208 43.0164 30.568C43.3897 29.928 43.8964 29.4267 44.5364 29.064C45.1764 28.7014 45.907 28.52 46.7284 28.52C47.5604 28.52 48.2964 28.7014 48.9364 29.064C49.587 29.4267 50.0937 29.928 50.4564 30.568C50.8297 31.208 51.0164 31.9494 51.0164 32.792C51.0164 33.624 50.8297 34.3654 50.4564 35.016C50.0937 35.656 49.587 36.1627 48.9364 36.536C48.2857 36.8987 47.5497 37.08 46.7284 37.08ZM46.7284 36.072C47.3364 36.072 47.875 35.9387 48.3444 35.672C48.8137 35.3947 49.1817 35.0107 49.4484 34.52C49.7257 34.0187 49.8644 33.4427 49.8644 32.792C49.8644 32.1307 49.7257 31.5547 49.4484 31.064C49.1817 30.5734 48.8137 30.1947 48.3444 29.928C47.875 29.6507 47.3417 29.512 46.7444 29.512C46.147 29.512 45.6137 29.6507 45.1444 29.928C44.675 30.1947 44.3017 30.5734 44.0244 31.064C43.747 31.5547 43.6084 32.1307 43.6084 32.792C43.6084 33.4427 43.747 34.0187 44.0244 34.52C44.3017 35.0107 44.675 35.3947 45.1444 35.672C45.6137 35.9387 46.1417 36.072 46.7284 36.072Z" fill="url(#paint7_linear_345_95)"/>
<path d="M56.9643 37.08C56.1323 37.08 55.3856 36.8987 54.7243 36.536C54.0736 36.1627 53.5616 35.656 53.1883 35.016C52.8149 34.3654 52.6283 33.624 52.6283 32.792C52.6283 31.9494 52.8149 31.208 53.1883 30.568C53.5616 29.928 54.0736 29.4267 54.7243 29.064C55.3856 28.7014 56.1323 28.52 56.9643 28.52C57.6789 28.52 58.3242 28.6587 58.9002 28.936C59.4762 29.2134 59.9296 29.6294 60.2603 30.184L59.4123 30.76C59.1243 30.3334 58.7669 30.0187 58.3403 29.816C57.9136 29.6134 57.4496 29.512 56.9483 29.512C56.3509 29.512 55.8123 29.6507 55.3323 29.928C54.8523 30.1947 54.4736 30.5734 54.1963 31.064C53.9189 31.5547 53.7803 32.1307 53.7803 32.792C53.7803 33.4534 53.9189 34.0294 54.1963 34.52C54.4736 35.0107 54.8523 35.3947 55.3323 35.672C55.8123 35.9387 56.3509 36.072 56.9483 36.072C57.4496 36.072 57.9136 35.9707 58.3403 35.768C58.7669 35.5654 59.1243 35.256 59.4123 34.84L60.2603 35.416C59.9296 35.96 59.4762 36.376 58.9002 36.664C58.3242 36.9414 57.6789 37.08 56.9643 37.08Z" fill="url(#paint8_linear_345_95)"/>
<path d="M65.7752 37.08C64.9646 37.08 64.2339 36.8987 63.5833 36.536C62.9433 36.1627 62.4366 35.656 62.0633 35.016C61.6899 34.3654 61.5033 33.624 61.5033 32.792C61.5033 31.9494 61.6899 31.208 62.0633 30.568C62.4366 29.928 62.9433 29.4267 63.5833 29.064C64.2233 28.7014 64.9539 28.52 65.7752 28.52C66.6072 28.52 67.3432 28.7014 67.9832 29.064C68.6339 29.4267 69.1406 29.928 69.5033 30.568C69.8766 31.208 70.0633 31.9494 70.0633 32.792C70.0633 33.624 69.8766 34.3654 69.5033 35.016C69.1406 35.656 68.6339 36.1627 67.9832 36.536C67.3326 36.8987 66.5966 37.08 65.7752 37.08ZM65.7752 36.072C66.3832 36.072 66.9219 35.9387 67.3913 35.672C67.8606 35.3947 68.2286 35.0107 68.4953 34.52C68.7726 34.0187 68.9113 33.4427 68.9113 32.792C68.9113 32.1307 68.7726 31.5547 68.4953 31.064C68.2286 30.5734 67.8606 30.1947 67.3913 29.928C66.9219 29.6507 66.3886 29.512 65.7912 29.512C65.1939 29.512 64.6606 29.6507 64.1912 29.928C63.7219 30.1947 63.3486 30.5734 63.0713 31.064C62.7939 31.5547 62.6553 32.1307 62.6553 32.792C62.6553 33.4427 62.7939 34.0187 63.0713 34.52C63.3486 35.0107 63.7219 35.3947 64.1912 35.672C64.6606 35.9387 65.1886 36.072 65.7752 36.072Z" fill="url(#paint9_linear_345_95)"/>
<path d="M72.4911 37L72.4911 28.6L76.2031 28.6C77.1525 28.6 77.8991 28.7814 78.4431 29.144C78.9978 29.5067 79.2751 30.04 79.2751 30.744C79.2751 31.4267 79.0138 31.9547 78.4911 32.328C77.9685 32.6907 77.2805 32.872 76.4271 32.872L76.6511 32.536C77.6538 32.536 78.3898 32.7227 78.8591 33.096C79.3285 33.4694 79.5631 34.008 79.5631 34.712C79.5631 35.4374 79.2965 36.0027 78.7631 36.408C78.2405 36.8027 77.4245 37 76.3151 37L72.4911 37ZM73.5951 36.104H76.2671C76.9818 36.104 77.5205 35.992 77.8831 35.768C78.2565 35.5334 78.4431 35.16 78.4431 34.648C78.4431 34.136 78.2778 33.7627 77.9471 33.528C77.6165 33.2934 77.0938 33.176 76.3791 33.176H73.5951V36.104ZM73.5951 32.328H76.1231C76.7738 32.328 77.2698 32.2054 77.6111 31.96C77.9631 31.7147 78.1391 31.3574 78.1391 30.888C78.1391 30.4187 77.9631 30.0667 77.6111 29.832C77.2698 29.5974 76.7738 29.48 76.1231 29.48L73.5951 29.48L73.5951 32.328Z" fill="url(#paint10_linear_345_95)"/>
<path fill-rule="evenodd" clip-rule="evenodd" d="M56.4583 5.66675C55.9058 5.66675 55.3759 5.88624 54.9852 6.27694C54.5945 6.66764 54.375 7.19755 54.375 7.75008V18.0834C54.375 18.6359 54.5945 19.1659 54.9852 19.5566C55.3759 19.9473 55.9058 20.1667 56.4583 20.1667H60.3333C60.4659 20.1667 60.5931 20.2194 60.6869 20.3132L65.5 25.1263L70.3131 20.3132C70.4069 20.2194 70.5341 20.1667 70.6667 20.1667H74.5417C75.0942 20.1667 75.6241 19.9473 76.0148 19.5566C76.4055 19.1659 76.625 18.6359 76.625 18.0834V7.75008C76.625 7.19755 76.4055 6.66764 76.0148 6.27694C75.6241 5.88624 75.0942 5.66675 74.5417 5.66675H56.4583ZM54.2781 5.56984C54.8563 4.9916 55.6406 4.66675 56.4583 4.66675H74.5417C75.3594 4.66675 76.1437 4.9916 76.7219 5.56984C77.3001 6.14807 77.625 6.93233 77.625 7.75008V18.0834C77.625 18.9012 77.3001 19.6854 76.7219 20.2637C76.1437 20.8419 75.3594 21.1667 74.5417 21.1667H70.8738L65.8536 26.187C65.6583 26.3822 65.3417 26.3822 65.1464 26.187L60.1262 21.1667H56.4583C55.6406 21.1667 54.8563 20.8419 54.2781 20.2637C53.6999 19.6854 53.375 18.9012 53.375 18.0834V7.75008C53.375 6.93233 53.6999 6.14807 54.2781 5.56984ZM58.5417 10.3334C58.5417 10.0573 58.7655 9.83341 59.0417 9.83341H71.9583C72.2345 9.83341 72.4583 10.0573 72.4583 10.3334C72.4583 10.6096 72.2345 10.8334 71.9583 10.8334H59.0417C58.7655 10.8334 58.5417 10.6096 58.5417 10.3334ZM58.5417 15.5001C58.5417 15.2239 58.7655 15.0001 59.0417 15.0001H64.2083C64.4845 15.0001 64.7083 15.2239 64.7083 15.5001C64.7083 15.7762 64.4845 16.0001 64.2083 16.0001H59.0417C58.7655 16.0001 58.5417 15.7762 58.5417 15.5001Z" fill="#6795F8"/>
<defs>
<linearGradient id="paint0_linear_345_95" x1="-1.14217e-07" y1="29.303" x2="79.2263" y2="29.303" gradientUnits="userSpaceOnUse">
<stop stop-color="#6B53FF"/>
<stop offset="1" stop-color="#65A2F5"/>
</linearGradient>
<linearGradient id="paint1_linear_345_95" x1="-1.14217e-07" y1="29.303" x2="79.2263" y2="29.303" gradientUnits="userSpaceOnUse">
<stop stop-color="#6B53FF"/>
<stop offset="1" stop-color="#65A2F5"/>
</linearGradient>
<linearGradient id="paint2_linear_345_95" x1="-1.14217e-07" y1="29.303" x2="79.2263" y2="29.303" gradientUnits="userSpaceOnUse">
<stop stop-color="#6B53FF"/>
<stop offset="1" stop-color="#65A2F5"/>
</linearGradient>
<linearGradient id="paint3_linear_345_95" x1="-1.14217e-07" y1="29.303" x2="79.2263" y2="29.303" gradientUnits="userSpaceOnUse">
<stop stop-color="#6B53FF"/>
<stop offset="1" stop-color="#65A2F5"/>
</linearGradient>
<linearGradient id="paint4_linear_345_95" x1="-1.14217e-07" y1="29.303" x2="79.2263" y2="29.303" gradientUnits="userSpaceOnUse">
<stop stop-color="#6B53FF"/>
<stop offset="1" stop-color="#65A2F5"/>
</linearGradient>
<linearGradient id="paint5_linear_345_95" x1="-1.14217e-07" y1="29.303" x2="79.2263" y2="29.303" gradientUnits="userSpaceOnUse">
<stop stop-color="#6B53FF"/>
<stop offset="1" stop-color="#65A2F5"/>
</linearGradient>
<linearGradient id="paint6_linear_345_95" x1="-1.14217e-07" y1="29.303" x2="79.2263" y2="29.303" gradientUnits="userSpaceOnUse">
<stop stop-color="#6B53FF"/>
<stop offset="1" stop-color="#65A2F5"/>
</linearGradient>
<linearGradient id="paint7_linear_345_95" x1="-1.14217e-07" y1="29.303" x2="79.2263" y2="29.303" gradientUnits="userSpaceOnUse">
<stop stop-color="#6B53FF"/>
<stop offset="1" stop-color="#65A2F5"/>
</linearGradient>
<linearGradient id="paint8_linear_345_95" x1="-1.14217e-07" y1="29.303" x2="79.2263" y2="29.303" gradientUnits="userSpaceOnUse">
<stop stop-color="#6B53FF"/>
<stop offset="1" stop-color="#65A2F5"/>
</linearGradient>
<linearGradient id="paint9_linear_345_95" x1="-1.14217e-07" y1="29.303" x2="79.2263" y2="29.303" gradientUnits="userSpaceOnUse">
<stop stop-color="#6B53FF"/>
<stop offset="1" stop-color="#65A2F5"/>
</linearGradient>
<linearGradient id="paint10_linear_345_95" x1="-1.14217e-07" y1="29.303" x2="79.2263" y2="29.303" gradientUnits="userSpaceOnUse">
<stop stop-color="#6B53FF"/>
<stop offset="1" stop-color="#65A2F5"/>
</linearGradient>
</defs>
</svg>

<svg xmlns="http://www.w3.org/2000/svg" width="81" height="41" fill="none"><path fill="url(#a)" d="M3.822 23V6.36l1.82 1.82H.182V4.8h7.852V23H3.822Z"/><path fill="url(#b)" d="M18.996 23.312c-1.49 0-2.826-.364-4.004-1.092-1.179-.745-2.106-1.82-2.782-3.224-.676-1.404-1.014-3.103-1.014-5.096 0-1.993.338-3.692 1.014-5.096.676-1.404 1.603-2.47 2.782-3.198 1.178-.745 2.513-1.118 4.004-1.118 1.508 0 2.842.373 4.004 1.118 1.178.728 2.106 1.794 2.782 3.198.676 1.404 1.014 3.103 1.014 5.096 0 1.993-.338 3.692-1.014 5.096-.676 1.404-1.604 2.479-2.782 3.224-1.162.728-2.496 1.092-4.004 1.092Zm0-3.562c.71 0 1.326-.2 1.846-.598.537-.399.953-1.031 1.248-1.898.312-.867.468-1.985.468-3.354 0-1.37-.156-2.487-.468-3.354-.295-.867-.71-1.5-1.248-1.898-.52-.399-1.136-.598-1.846-.598-.694 0-1.309.2-1.846.598-.52.399-.936 1.031-1.248 1.898-.295.867-.442 1.985-.442 3.354 0 1.37.147 2.487.442 3.354.312.867.728 1.5 1.248 1.898a3.016 3.016 0 0 0 1.846.598Z"/><path fill="url(#c)" d="M36.642 23.312c-1.49 0-2.825-.364-4.004-1.092-1.178-.745-2.106-1.82-2.782-3.224-.676-1.404-1.014-3.103-1.014-5.096 0-1.993.338-3.692 1.014-5.096.676-1.404 1.604-2.47 2.782-3.198 1.179-.745 2.514-1.118 4.004-1.118 1.508 0 2.843.373 4.004 1.118 1.179.728 2.106 1.794 2.782 3.198.676 1.404 1.014 3.103 1.014 5.096 0 1.993-.338 3.692-1.014 5.096-.676 1.404-1.603 2.479-2.782 3.224-1.161.728-2.496 1.092-4.004 1.092Zm0-3.562c.71 0 1.326-.2 1.846-.598.538-.399.954-1.031 1.248-1.898.312-.867.468-1.985.468-3.354 0-1.37-.156-2.487-.468-3.354-.294-.867-.71-1.5-1.248-1.898-.52-.399-1.135-.598-1.846-.598-.693 0-1.308.2-1.846.598-.52.399-.936 1.031-1.248 1.898-.294.867-.442 1.985-.442 3.354 0 1.37.148 2.487.442 3.354.312.867.728 1.5 1.248 1.898a3.016 3.016 0 0 0 1.846.598Z"/><path fill="url(#d)" d="M1.616 37v-8.4h3.712c.95 0 1.696.181 2.24.544.555.363.832.896.832 1.6 0 .683-.261 1.21-.784 1.584-.523.363-1.21.544-2.064.544l.224-.336c1.003 0 1.739.187 2.208.56.47.373.704.912.704 1.616 0 .725-.267 1.29-.8 1.696-.523.395-1.339.592-2.448.592H1.616Zm1.104-.896h2.672c.715 0 1.253-.112 1.616-.336.373-.235.56-.608.56-1.12 0-.512-.165-.885-.496-1.12-.33-.235-.853-.352-1.568-.352H2.72v2.928Zm0-3.776h2.528c.65 0 1.147-.123 1.488-.368.352-.245.528-.603.528-1.072 0-.47-.176-.821-.528-1.056-.341-.235-.837-.352-1.488-.352H2.72v2.848Z"/><path fill="url(#e)" d="M14.806 37.08c-.81 0-1.54-.181-2.191-.544a4.154 4.154 0 0 1-1.52-1.52c-.374-.65-.56-1.392-.56-2.224 0-.843.186-1.584.56-2.224.373-.64.88-1.141 1.52-1.504s1.37-.544 2.191-.544c.833 0 1.569.181 2.209.544.65.363 1.157.864 1.52 1.504.373.64.56 1.381.56 2.224 0 .832-.187 1.573-.56 2.224a4 4 0 0 1-1.52 1.52c-.651.363-1.387.544-2.209.544Zm0-1.008c.609 0 1.147-.133 1.617-.4.469-.277.837-.661 1.104-1.152.277-.501.415-1.077.415-1.728 0-.661-.138-1.237-.416-1.728a2.832 2.832 0 0 0-1.104-1.136 3.085 3.085 0 0 0-1.6-.416c-.597 0-1.13.139-1.6.416a2.94 2.94 0 0 0-1.12 1.136c-.277.49-.415 1.067-.415 1.728 0 .65.138 1.227.415 1.728.278.49.651.875 1.12 1.152.47.267.998.4 1.585.4Z"/><path fill="url(#f)" d="M21.522 37v-8.4h7.552V37h-1.136v-7.712l.288.304H22.37l.288-.304V37h-1.136Z"/><path fill="url(#g)" d="M36.64 37.08a3.938 3.938 0 0 1-1.968-.496 3.775 3.775 0 0 1-1.408-1.456c-.342-.64-.512-1.419-.512-2.336 0-.917.17-1.69.512-2.32.341-.64.805-1.125 1.392-1.456.586-.33 1.248-.496 1.984-.496.8 0 1.514.181 2.144.544.64.352 1.141.853 1.504 1.504.362.64.544 1.381.544 2.224 0 .853-.182 1.6-.544 2.24a3.918 3.918 0 0 1-1.504 1.504c-.63.363-1.344.544-2.144.544Zm-4.336 3.024V28.6h1.088v2.528l-.112 1.68.16 1.696v5.6h-1.136Zm4.256-4.032c.597 0 1.13-.133 1.6-.4.469-.277.842-.661 1.12-1.152.277-.501.416-1.077.416-1.728 0-.65-.139-1.221-.416-1.712a3.059 3.059 0 0 0-1.12-1.152 3.085 3.085 0 0 0-1.6-.416c-.598 0-1.136.139-1.616.416a3.06 3.06 0 0 0-1.12 1.152c-.267.49-.4 1.061-.4 1.712 0 .65.133 1.227.4 1.728.277.49.65.875 1.12 1.152.48.267 1.018.4 1.616.4Z"/><path fill="url(#h)" d="M46.728 37.08c-.81 0-1.541-.181-2.192-.544a4.154 4.154 0 0 1-1.52-1.52c-.373-.65-.56-1.392-.56-2.224 0-.843.187-1.584.56-2.224.374-.64.88-1.141 1.52-1.504s1.371-.544 2.192-.544c.832 0 1.568.181 2.208.544.651.363 1.158.864 1.52 1.504.374.64.56 1.381.56 2.224 0 .832-.186 1.573-.56 2.224a4.001 4.001 0 0 1-1.52 1.52c-.65.363-1.386.544-2.208.544Zm0-1.008c.608 0 1.147-.133 1.616-.4.47-.277.838-.661 1.104-1.152.278-.501.416-1.077.416-1.728 0-.661-.138-1.237-.416-1.728a2.832 2.832 0 0 0-1.104-1.136 3.086 3.086 0 0 0-1.6-.416c-.597 0-1.13.139-1.6.416a2.94 2.94 0 0 0-1.12 1.136c-.277.49-.416 1.067-.416 1.728 0 .65.139 1.227.416 1.728.278.49.651.875 1.12 1.152.47.267.998.4 1.584.4Z"/><path fill="url(#i)" d="M56.964 37.08c-.832 0-1.578-.181-2.24-.544a4.118 4.118 0 0 1-1.536-1.52c-.373-.65-.56-1.392-.56-2.224 0-.843.187-1.584.56-2.224a4.001 4.001 0 0 1 1.536-1.504c.662-.363 1.408-.544 2.24-.544.715 0 1.36.139 1.936.416.576.277 1.03.693 1.36 1.248l-.848.576a2.667 2.667 0 0 0-1.072-.944 3.204 3.204 0 0 0-1.392-.304c-.597 0-1.136.139-1.616.416-.48.267-.858.645-1.136 1.136-.277.49-.416 1.067-.416 1.728s.139 1.237.416 1.728c.278.49.656.875 1.136 1.152.48.267 1.019.4 1.616.4.502 0 .966-.101 1.392-.304a2.705 2.705 0 0 0 1.072-.928l.848.576a3.27 3.27 0 0 1-1.36 1.248c-.576.277-1.221.416-1.936.416Z"/><path fill="url(#j)" d="M65.775 37.08c-.81 0-1.541-.181-2.192-.544a4.154 4.154 0 0 1-1.52-1.52c-.373-.65-.56-1.392-.56-2.224 0-.843.187-1.584.56-2.224.374-.64.88-1.141 1.52-1.504s1.37-.544 2.192-.544c.832 0 1.568.181 2.208.544.65.363 1.158.864 1.52 1.504.374.64.56 1.381.56 2.224 0 .832-.186 1.573-.56 2.224a4 4 0 0 1-1.52 1.52c-.65.363-1.386.544-2.208.544Zm0-1.008c.608 0 1.147-.133 1.616-.4.47-.277.838-.661 1.104-1.152.278-.501.416-1.077.416-1.728 0-.661-.138-1.237-.416-1.728a2.832 2.832 0 0 0-1.104-1.136 3.086 3.086 0 0 0-1.6-.416c-.597 0-1.13.139-1.6.416a2.94 2.94 0 0 0-1.12 1.136c-.277.49-.416 1.067-.416 1.728 0 .65.139 1.227.416 1.728.278.49.65.875 1.12 1.152.47.267.998.4 1.584.4Z"/><path fill="url(#k)" d="M72.491 37v-8.4h3.712c.95 0 1.696.181 2.24.544.555.363.832.896.832 1.6 0 .683-.261 1.21-.784 1.584-.522.363-1.21.544-2.064.544l.224-.336c1.003 0 1.739.187 2.208.56.47.373.704.912.704 1.616 0 .725-.267 1.29-.8 1.696-.523.395-1.339.592-2.448.592h-3.824Zm1.104-.896h2.672c.715 0 1.254-.112 1.616-.336.374-.235.56-.608.56-1.12 0-.512-.165-.885-.496-1.12-.33-.235-.853-.352-1.568-.352h-2.784v2.928Zm0-3.776h2.528c.65 0 1.147-.123 1.488-.368.352-.245.528-.603.528-1.072 0-.47-.176-.821-.528-1.056-.341-.235-.837-.352-1.488-.352h-2.528v2.848Z"/><path fill="#6795F8" fill-rule="evenodd" d="M56.458 5.667a2.083 2.083 0 0 0-2.083 2.083v10.333a2.084 2.084 0 0 0 2.083 2.084h3.875a.5.5 0 0 1 .354.146l4.813 4.813 4.813-4.813a.5.5 0 0 1 .354-.146h3.875a2.083 2.083 0 0 0 2.083-2.084V7.75a2.083 2.083 0 0 0-2.083-2.083H56.458Zm-2.18-.097a3.083 3.083 0 0 1 2.18-.903h18.084a3.083 3.083 0 0 1 3.083 3.083v10.333a3.084 3.084 0 0 1-3.083 3.084h-3.668l-5.02 5.02a.5.5 0 0 1-.708 0l-5.02-5.02h-3.668a3.083 3.083 0 0 1-3.083-3.084V7.75c0-.818.325-1.602.903-2.18Zm4.264 4.763a.5.5 0 0 1 .5-.5h12.916a.5.5 0 1 1 0 1H59.042a.5.5 0 0 1-.5-.5Zm0 5.167a.5.5 0 0 1 .5-.5h5.166a.5.5 0 1 1 0 1h-5.166a.5.5 0 0 1-.5-.5Z" clip-rule="evenodd"/><defs><linearGradient id="a" x1="0" x2="79.226" y1="29.303" y2="29.303" gradientUnits="userSpaceOnUse"><stop stop-color="#6B53FF"/><stop offset="1" stop-color="#65A2F5"/></linearGradient><linearGradient id="b" x1="0" x2="79.226" y1="29.303" y2="29.303" gradientUnits="userSpaceOnUse"><stop stop-color="#6B53FF"/><stop offset="1" stop-color="#65A2F5"/></linearGradient><linearGradient id="c" x1="0" x2="79.226" y1="29.303" y2="29.303" gradientUnits="userSpaceOnUse"><stop stop-color="#6B53FF"/><stop offset="1" stop-color="#65A2F5"/></linearGradient><linearGradient id="d" x1="0" x2="79.226" y1="29.303" y2="29.303" gradientUnits="userSpaceOnUse"><stop stop-color="#6B53FF"/><stop offset="1" stop-color="#65A2F5"/></linearGradient><linearGradient id="e" x1="0" x2="79.226" y1="29.303" y2="29.303" gradientUnits="userSpaceOnUse"><stop stop-color="#6B53FF"/><stop offset="1" stop-color="#65A2F5"/></linearGradient><linearGradient id="f" x1="0" x2="79.226" y1="29.303" y2="29.303" gradientUnits="userSpaceOnUse"><stop stop-color="#6B53FF"/><stop offset="1" stop-color="#65A2F5"/></linearGradient><linearGradient id="g" x1="0" x2="79.226" y1="29.303" y2="29.303" gradientUnits="userSpaceOnUse"><stop stop-color="#6B53FF"/><stop offset="1" stop-color="#65A2F5"/></linearGradient><linearGradient id="h" x1="0" x2="79.226" y1="29.303" y2="29.303" gradientUnits="userSpaceOnUse"><stop stop-color="#6B53FF"/><stop offset="1" stop-color="#65A2F5"/></linearGradient><linearGradient id="i" x1="0" x2="79.226" y1="29.303" y2="29.303" gradientUnits="userSpaceOnUse"><stop stop-color="#6B53FF"/><stop offset="1" stop-color="#65A2F5"/></linearGradient><linearGradient id="j" x1="0" x2="79.226" y1="29.303" y2="29.303" gradientUnits="userSpaceOnUse"><stop stop-color="#6B53FF"/><stop offset="1" stop-color="#65A2F5"/></linearGradient><linearGradient id="k" x1="0" x2="79.226" y1="29.303" y2="29.303" gradientUnits="userSpaceOnUse"><stop stop-color="#6B53FF"/><stop offset="1" stop-color="#65A2F5"/></linearGradient></defs></svg>
